X:129occ
T:Colonel O'Hara
C:Turlough O'Carolan (1670-1738)
C:ALLEGHRETTO
B:Complete Works Of Turlough O'Carolan (PB - no pub - no date - fleamarket find)
Z:to Noteworthy and MIDI by Chris Gilb; Translation to ABC and GIF copy by Vince Brennan
N:Transposed from F
I:abc2nwc
M:C|
L:1/8
K:G
g2d2gfed|{f}e2dc c2ag|gfed d2dc|cBAG G2D2|
BABG cBcA|dcdB edec|cBAG FAEA|D4z4|
{A}GFGE CDEC|AGAF DEFD|BABG EFGE|cBcA FGAF|
GABc d2ef|g2fg agfe|d2Bc dcBA|G2g2G4||
D2G2GFGA|GFGA G2D2|B2B2BcBA|GABc d2cB|
c2g2fg a2|gfed d'2d2|bagb c'bag|f2 Te2d2ef|
gfge cdec|agaf defd|babg efge|c'bc'a fgaf|
b2g2g2g2|f2d4d2|{a}gfgd cBAG|G4z4|]

